X:1
T:Blue-Eyed Stranger [1]
M:4/4
L:1/8
N:Sherborne version
K:D
d3c B2B2|ABAG F2 FG|A2D2D2A2|F3E D4:|
d3B =c2A2|d=cdB c2A2|d2 d^c B2e2|cdcB A4|
d2 d=c B2B2|ABAG F2 FG|A2 D2D2A2|F3E D4||

